X:1
T:Title
L:1/8
Q:1/4=80
M:6/8
K:C
V:1 treble nm="Church Organ, Staff"
V:1
 E A2 edc | B c2 A B2 | E A2 AAG | F E2- E .E2 | E A2 edc | B c2 A B2 | EAB c B2 | E A2- A .A2 | %8
w: By~Alfred~Redhead * * * *||||||||
 A G2 GGA | B c2 c B2 | B c2 ced | c c2- c .c2 | ccB A B2 | BBA G A2 | AAB c B2 | A A2- A G2 | %16
w: ||||||||
 G c2 c c2 | G G2 F E2 | EFG A G2 | E E2 D C2 |] %20
w: ||||

